X:71
T:Comin' Through the Broom
T:or Gala Water
C:arr. Carlo Minasi
M:C
L:1/8
B:Chappell's One Hundred Scotch Melodies
B:Arranged for the Concertina by Carlo Minasi
Q:"Slow  "1/4=90
Z:Peter Dunk 2012
K:D
!p!F2 (E>D) D3 F|([A3F3D3]B AF[EB,G,]D)|\
([F2D2A,2][E2C2A,2])[E2C2A,2]([FD]A)|\
([BGD][AF][dB][cA]){[cA]}([B2G2] [AF])Hz/ A/|
%
([A2F2D2] [BG][cE] [d3F3] [eAC])|([fAD]>e[dBG]B)\
([d3A3F3] F)|([F2D2B,2]E>F) ([E2C2A,2] [FD][AF])|\
([d3B3] [cA]){[cA]}([B2G2] [AF])Hz|F2 E>D HD3 z||

